app/images/src/icon_menu.svg

<svg version="1.1" xmlns="http://www.w3.org/2000/svg" xmlns:xlink="http://www.w3.org/1999/xlink" width="37" height="29" viewBox="0,0,256,200.64999"><g fill="#dfdfdf" fill-rule="nonzero" stroke="none" stroke-width="1" stroke-linecap="butt" stroke-linejoin="miter" stroke-miterlimit="10" stroke-dasharray="" stroke-dashoffset="0" font-family="none" font-weight="none" font-size="none" text-anchor="none" style="mix-blend-mode: normal"><g transform="translate(0,0.00067) scale(6.91892,6.91892)"><g id="icon_menu"><path d="M35.4583,26h-33.91663c-0.851,0 -1.54167,0.672 -1.54167,1.5c0,0.828 0.69067,1.5 1.54167,1.5h33.91663c0.851,0 1.5417,-0.672 1.5417,-1.5c0,-0.828 -0.6907,-1.5 -1.5417,-1.5z" id="Path"></path><path d="M35.5,0h-21c-0.828,0 -1.5,0.672 -1.5,1.5c0,0.828 0.672,1.5 1.5,1.5h21c0.828,0 1.5,-0.672 1.5,-1.5c0,-0.828 -0.672,-1.5 -1.5,-1.5z" id="Path_2"></path><path d="M35.4583,9h-33.91663c-0.851,0 -1.54167,0.672 -1.54167,1.5c0,0.828 0.69067,1.5 1.54167,1.5h33.91663c0.851,0 1.5417,-0.672 1.5417,-1.5c0,-0.828 -0.6907,-1.5 -1.5417,-1.5z" id="Path_3"></path><path d="M35.5,18h-21c-0.828,0 -1.5,0.672 -1.5,1.5c0,0.828 0.672,1.5 1.5,1.5h21c0.828,0 1.5,-0.672 1.5,-1.5c0,-0.828 -0.672,-1.5 -1.5,-1.5z" id="Path_4"></path></g></g></g></svg>

<svg width="37" height="29" viewBox="0 0 37 29" fill="none" xmlns="http://www.w3.org/2000/svg">
<g id="icon_menu">
<path id="Path" d="M35.4583 26H1.54167C0.690667 26 0 26.672 0 27.5C0 28.328 0.690667 29 1.54167 29H35.4583C36.3093 29 37 28.328 37 27.5C37 26.672 36.3093 26 35.4583 26Z" fill="black"/>
<path id="Path_2" d="M35.5 0H14.5C13.672 0 13 0.672 13 1.5C13 2.328 13.672 3 14.5 3H35.5C36.328 3 37 2.328 37 1.5C37 0.672 36.328 0 35.5 0Z" fill="black"/>
<path id="Path_3" d="M35.4583 9H1.54167C0.690667 9 0 9.672 0 10.5C0 11.328 0.690667 12 1.54167 12H35.4583C36.3093 12 37 11.328 37 10.5C37 9.672 36.3093 9 35.4583 9Z" fill="black"/>
<path id="Path_4" d="M35.5 18H14.5C13.672 18 13 18.672 13 19.5C13 20.328 13.672 21 14.5 21H35.5C36.328 21 37 20.328 37 19.5C37 18.672 36.328 18 35.5 18Z" fill="black"/>
</g>
</svg>
